fs/branch_fork_32_regular.svg

<svg viewBox="0 0 32 32" fill="none" xmlns="http://www.w3.org/2000/svg" height="1em" width="1em">
  <path d="M9 10C7.34315 10 6 8.65685 6 7C6 5.34315 7.34315 4 9 4C10.6569 4 12 5.34315 12 7C12 8.65685 10.6569 10 9 10ZM10 11.9C12.2822 11.4367 14 9.41896 14 7C14 4.23858 11.7614 2 9 2C6.23858 2 4 4.23858 4 7C4 9.41896 5.71776 11.4367 8 11.9L8 20.1C5.71776 20.5633 4 22.581 4 25C4 27.7614 6.23858 30 9 30C11.7614 30 14 27.7614 14 25C14 22.581 12.2822 20.5633 10 20.1V18H19C21.7614 18 24 15.7614 24 13V11.9C26.2822 11.4367 28 9.41896 28 7C28 4.23858 25.7614 2 23 2C20.2386 2 18 4.23858 18 7C18 9.41896 19.7178 11.4367 22 11.9V13C22 14.6569 20.6569 16 19 16H10V11.9ZM23 10C21.3431 10 20 8.65685 20 7C20 5.34315 21.3431 4 23 4C24.6569 4 26 5.34315 26 7C26 8.65685 24.6569 10 23 10ZM12 25C12 26.6569 10.6569 28 9 28C7.34315 28 6 26.6569 6 25C6 23.3431 7.34315 22 9 22C10.6569 22 12 23.3431 12 25Z" fill="#212121"/>
</svg>

<svg viewBox="0 0 32 32" fill="none" xmlns="http://www.w3.org/2000/svg" height="1em" width="1em">
  <path d="M9 10a3 3 0 1 1 0-6 3 3 0 0 1 0 6Zm1 1.9A5.002 5.002 0 0 0 9 2a5 5 0 0 0-1 9.9v8.2A5.002 5.002 0 0 0 9 30a5 5 0 0 0 1-9.9V18h9a5 5 0 0 0 5-5v-1.1A5.002 5.002 0 0 0 23 2a5 5 0 0 0-1 9.9V13a3 3 0 0 1-3 3h-9v-4.1ZM23 10a3 3 0 1 1 0-6 3 3 0 0 1 0 6ZM12 25a3 3 0 1 1-6 0 3 3 0 0 1 6 0Z" fill="#212121"/>
</svg>
